content/fr/images/duke/money.svg

<svg height="1000" width="1071.4" xmlns="http://www.w3.org/2000/svg"><path d="m428.6 642.9h214.3v-53.6h-71.5v-250h-63.6l-82.6 76.4 43 44.7c13.4-11.7 21.8-17.9 30.7-31.8h1.1v160.7h-71.4v53.6z m285.7-142.9c0 101.6-61.4 232.1-178.6 232.1s-178.6-130.5-178.6-232.1 61.4-232.1 178.6-232.1 178.6 130.5 178.6 232.1z m285.7 142.9v-285.8c-78.7 0-142.9-64.1-142.9-142.8h-642.8c0 78.7-64.2 142.8-142.9 142.8v285.8c78.7 0 142.9 64.1 142.9 142.8h642.8c0-78.7 64.2-142.8 142.9-142.8z m71.4-464.3v642.8c0 19.6-16.2 35.7-35.7 35.7h-1000c-19.5 0-35.7-16.1-35.7-35.7v-642.8c0-19.6 16.2-35.7 35.7-35.7h1000c19.5 0 35.7 16.1 35.7 35.7z" /></svg>

<?xml version="1.0" encoding="utf-8"?>
<!-- Generator: Adobe Illustrator 24.3.0, SVG Export Plug-In . SVG Version: 6.00 Build 0)  -->
<svg version="1.1" id="Calque_1" xmlns="http://www.w3.org/2000/svg" xmlns:xlink="http://www.w3.org/1999/xlink" x="0px" y="0px"
	 viewBox="0 0 1071.4 1000" style="enable-background:new 0 0 1071.4 1000;" xml:space="preserve">
<style type="text/css">
	.st0{fill:#333333;}
</style>
<path class="st0" d="M428.6,642.9h214.3v-53.6h-71.5v-250h-63.6l-82.6,76.4l43,44.7c13.4-11.7,21.8-17.9,30.7-31.8h1.1v160.7h-71.4
	L428.6,642.9L428.6,642.9z M714.3,500c0,101.6-61.4,232.1-178.6,232.1S357.1,601.6,357.1,500s61.4-232.1,178.6-232.1
	S714.3,398.4,714.3,500z M1000,642.9V357.1c-78.7,0-142.9-64.1-142.9-142.8H214.3c0,78.7-64.2,142.8-142.9,142.8v285.8
	c78.7,0,142.9,64.1,142.9,142.8h642.8C857.1,707,921.3,642.9,1000,642.9L1000,642.9z M1071.4,178.6v642.8
	c0,19.6-16.2,35.7-35.7,35.7H35.7C16.2,857.1,0,841,0,821.4V178.6c0-19.6,16.2-35.7,35.7-35.7h1000
	C1055.2,142.9,1071.4,159,1071.4,178.6z"/>
</svg>
